UI/Core-UI/SVG/question-mark_outline_24px.svg

<svg width="24" height="24" viewBox="0 0 24 24" fill="none" xmlns="http://www.w3.org/2000/svg">
<path d="M13.0001 17H11.0001V15C10.9593 14.0698 11.2578 13.1565 11.8401 12.43C12.4301 11.7674 13.1022 11.1827 13.8401 10.69C14.3055 10.3871 14.7499 10.053 15.1701 9.69001C15.4513 9.41999 15.6817 9.10159 15.8501 8.75001C16.0347 8.31045 16.1233 7.83656 16.1101 7.36001C16.1127 6.79056 15.9531 6.23214 15.6501 5.75001C15.2978 5.22194 14.8111 4.79736 14.2401 4.52001C13.4978 4.16457 12.683 3.98655 11.8601 4.00001C10.8977 3.9852 9.94504 4.1943 9.0773 4.61081C8.20957 5.02732 7.45053 5.63984 6.86012 6.40001L5.37012 5.11001C6.14368 4.13167 7.13047 3.34294 8.25522 2.80396C9.37996 2.26499 10.6129 1.99001 11.8601 2.00001C12.9975 1.97304 14.1251 2.21637 15.1501 2.71001C16.0498 3.16313 16.8074 3.85505 17.3401 4.71001C17.847 5.508 18.1142 6.43466 18.1101 7.38001C18.1284 8.1551 17.9712 8.9243 17.6501 9.63001C17.3733 10.2236 16.9826 10.757 16.5001 11.2C16.024 11.6013 15.523 11.972 15.0001 12.31C14.4065 12.6991 13.8654 13.1629 13.3901 13.69C13.1021 14.0632 12.9631 14.5301 13.0001 15V17ZM13.0001 19H11.0001V21H13.0001V19Z" fill="#0F1621"/>
</svg>

<svg xmlns="http://www.w3.org/2000/svg" width="24" height="24" viewBox="0 0 24 24"><rect width="24" height="24" style="fill:none"/><path d="M13,17H11V15a3.84,3.84,0,0,1,.84-2.57,10.44,10.44,0,0,1,2-1.74,12.3,12.3,0,0,0,1.33-1,3.25,3.25,0,0,0,.68-.94,3.35,3.35,0,0,0,.26-1.39,3,3,0,0,0-.46-1.61,3.57,3.57,0,0,0-1.41-1.23A5.31,5.31,0,0,0,11.86,4a6.21,6.21,0,0,0-5,2.4L5.37,5.11A8.19,8.19,0,0,1,11.86,2a7.19,7.19,0,0,1,3.29.71,5.49,5.49,0,0,1,2.19,2,4.94,4.94,0,0,1,.77,2.67,5.14,5.14,0,0,1-.46,2.25,5,5,0,0,1-1.15,1.57A14.75,14.75,0,0,1,15,12.31a8.28,8.28,0,0,0-1.61,1.38A1.9,1.9,0,0,0,13,15Zm0,2H11v2h2Z"/></svg>
